icons/community_healthworker.svg

<svg width="48" height="48" viewBox="0 0 48 48" fill="none" xmlns="http://www.w3.org/2000/svg">
<path fill-rule="evenodd" clip-rule="evenodd" d="M20.5331 10.5001C20.5331 12.9854 18.5184 15.0001 16.0331 15.0001C13.5478 15.0001 11.5331 12.9854 11.5331 10.5001C11.5331 8.01484 13.5478 6.00012 16.0331 6.00012C18.5184 6.00012 20.5331 8.01484 20.5331 10.5001ZM18.5331 10.5001C18.5331 11.8808 17.4138 13.0001 16.0331 13.0001C14.6524 13.0001 13.5331 11.8808 13.5331 10.5001C13.5331 9.11941 14.6524 8.00012 16.0331 8.00012C17.4138 8.00012 18.5331 9.11941 18.5331 10.5001Z" fill="black"/>
<path d="M32.4999 7.08591L39.707 14.293L38.2928 15.7072L36.9999 14.4143V20.0001H33.9999V17.5001C33.9999 16.6717 33.3283 16.0001 32.4999 16.0001C31.6714 16.0001 30.9999 16.6717 30.9999 17.5001V20.0001H27.9999V14.4143L26.7069 15.7072L25.2927 14.293L32.4999 7.08591Z" fill="black"/>
<path fill-rule="evenodd" clip-rule="evenodd" d="M17.8212 16.0001L17.8526 16.0002H18.1996V16.0141C18.5692 16.0418 19.029 16.1197 19.5151 16.3194C22.3376 17.4783 23.0537 20.4012 23.4205 21.8985L23.4229 21.9082C23.6221 22.7213 23.6273 22.7443 23.7413 23.2612C23.8498 23.7532 24.0617 24.7136 24.6581 27.3344C25.0257 28.95 24.0141 30.5577 22.3986 30.9253C22.0592 31.0026 21.7204 31.0189 21.3934 30.9817L21.9926 34.0215C22.1716 34.93 21.6941 35.9148 20.7163 36.2249C19.7108 36.5439 17.8616 37.0001 15.4997 37.0001C13.1378 37.0001 11.2885 36.5439 10.2831 36.2249C9.30525 35.9148 8.8277 34.93 9.00676 34.0215L9.60586 30.9819C9.27906 31.019 8.94045 31.0026 8.60134 30.9255C6.98579 30.5578 5.97416 28.9501 6.3418 27.3346C6.93606 24.7232 7.14844 23.7606 7.2573 23.2671L7.2585 23.2613C7.37252 22.7444 7.37783 22.7214 7.57704 21.9083L7.57942 21.8986C7.94622 20.4013 8.66228 17.4784 11.4847 16.3195C12.1553 16.0441 12.7757 16.0004 13.178 16.0003L17.8212 16.0001ZM16.1996 18.0002L13.1787 18.0003C12.9188 18.0004 12.5848 18.0298 12.2444 18.1696C10.4718 18.8975 9.91744 20.7603 9.51959 22.3842C9.32413 23.1821 9.32112 23.1957 9.21448 23.6792L9.21288 23.6864L9.21168 23.6922C9.10216 24.1887 8.8894 25.1529 8.29194 27.7784C8.1694 28.3169 8.50661 28.8528 9.04512 28.9753C9.41215 29.0588 9.77967 28.9286 10.0145 28.6652L11.223 22.8184L13.1816 23.2232L11.9601 29.1331L12.0055 29.1495L10.981 34.3477C11.8646 34.6199 13.4646 35.0001 15.4997 35.0001C17.5347 35.0001 19.1347 34.6199 20.0184 34.3477L18.9935 29.1477L19.0389 29.1314L17.8182 23.2232L19.7768 22.8185L20.9847 28.6643C21.2195 28.9282 21.5874 29.0588 21.9548 28.9752C22.4933 28.8526 22.8305 28.3167 22.7079 27.7782C22.1105 25.1528 21.8978 24.1885 21.7883 23.692L21.7854 23.6791C21.6788 23.1956 21.6758 23.1819 21.4803 22.3841C21.0825 20.7602 20.5281 18.8973 18.7555 18.1695C18.4152 18.0298 18.0815 18.0003 17.8215 18.0001L16.1996 18.0015V18.0002Z" fill="black"/>
<path d="M11.8587 41.9091C11.1329 41.7909 10.5998 41.1639 10.5998 40.4286V38.0241C11.9333 38.1817 13.173 38.2827 14.3843 38.3284L13.5223 40.9046C13.2889 41.6019 12.5845 42.0273 11.8587 41.9091Z" fill="black"/>
<path d="M17.4887 40.9377L16.5554 38.3511C17.8008 38.3299 19.0579 38.2501 20.3997 38.113V40.4286C20.3997 41.1573 19.8759 41.7806 19.1581 41.9062C18.4402 42.0317 17.736 41.6232 17.4887 40.9377Z" fill="black"/>
<path d="M32.9998 25.5859L41.7069 34.293L40.2927 35.7072L38.5383 33.9528V41.154H34.8459V38.077C34.8459 37.0574 34.0194 36.2308 32.9998 36.2308C31.9802 36.2308 31.1536 37.0574 31.1536 38.077V41.154H27.4614V33.9528L25.7069 35.7072L24.2927 34.293L32.9998 25.5859Z" fill="black"/>
</svg>

<svg
  xmlns="http://www.w3.org/2000/svg"
  width="24"
  height="24"
  viewBox="0 0 24 24"
  fill="none"
  stroke="currentColor"
  stroke-width="2"
  stroke-linecap="round"
  stroke-linejoin="round"
>
  <path
    fill-rule="evenodd"
    d="M20.533 10.5a4.5 4.5 0 1 1-9 0 4.5 4.5 0 0 1 9 0m-2 0a2.5 2.5 0 1 1-5 0 2.5 2.5 0 0 1 5 0"
    clip-rule="evenodd"
  />
  <path d="m32.5 7.086 7.207 7.207-1.414 1.414L37 14.414V20h-3v-2.5a1.5 1.5 0 0 0-3 0V20h-3v-5.586l-1.293 1.293-1.414-1.414z" />
  <path
    fill-rule="evenodd"
    d="M17.821 16h.379v.014c.37.028.829.106 1.315.305 2.823 1.16 3.539 4.082 3.906 5.58l.002.01c.2.812.204.835.318 1.352.109.492.32 1.453.917 4.073a3 3 0 0 1-3.265 3.648l.6 3.04c.179.908-.299 1.893-1.277 2.203-1.005.319-2.854.775-5.216.775s-4.211-.456-5.217-.775c-.978-.31-1.455-1.295-1.276-2.203l.599-3.04a3 3 0 0 1-3.264-3.647c.594-2.612.806-3.574.915-4.068l.002-.006c.114-.517.119-.54.318-1.353l.002-.01c.367-1.497 1.083-4.42 3.906-5.578a4.4 4.4 0 0 1 1.693-.32zM16.2 18h-3.021c-.26 0-.594.03-.935.17-1.772.727-2.327 2.59-2.724 4.214-.196.798-.199.812-.306 1.295l-.001.007-.001.006c-.11.497-.323 1.46-.92 4.086a1 1 0 0 0 1.723.887l1.208-5.847 1.959.405-1.222 5.91.045.017-1.024 5.198c.884.272 2.484.652 4.519.652s3.635-.38 4.518-.652l-1.024-5.2.045-.017-1.22-5.908 1.958-.404 1.208 5.845a1 1 0 0 0 1.723-.886c-.598-2.625-.81-3.59-.92-4.086l-.003-.013c-.106-.483-.11-.497-.305-1.295-.398-1.624-.952-3.487-2.724-4.215a2.5 2.5 0 0 0-.934-.169l-1.622.002z"
    clip-rule="evenodd"
  />
  <path d="M11.859 41.91a1.5 1.5 0 0 1-1.26-1.481v-2.405c1.334.158 2.574.259 3.785.304l-.862 2.577a1.5 1.5 0 0 1-1.663 1.004" />
  <path d="m17.489 40.938-.934-2.587a45 45 0 0 0 3.845-.238v2.316a1.5 1.5 0 0 1-2.911.509" />
  <path d="m33 25.586 8.707 8.707-1.414 1.414-1.755-1.754v7.201h-3.692v-3.077a1.846 1.846 0 1 0-3.692 0v3.077H27.46v-7.201l-1.754 1.754-1.414-1.414z" />
</svg>
